X: 966
T: Scatter the Mud - 1st Setting
B: O'Neill's 1850 #966
O: F.O'Neill
Z: Dan G. Petersen, dangp@post6.tele.dk
M: 6/8
L: 1/8
K: Am	% and G
%%slurgraces yes
%%graceslurs yes
d |\
eAA B2{cB}A | eAA ABd | eAA B2{cB}A | BGG GBd |\
eAA B2{cB}A | eAA ABd | edc BcA | BGG G2 :|
K: G
|: d |\
gfg efg | fag fed | gfg efg | afd d2d |\
gfg efg | fag fed | edc BcA | BGG G2 :|
